;FLAVOR:Marlin
;TIME:2917
;Filament used: 1.14976m
;Layer height: 0.3
;MINX:91.828
;MINY:84.753
;MINZ:0.12
;MAXX:128.179
;MAXY:135.088
;MAXZ:15.12
;Generated with Cura_SteamEngine 5.3.0
M140 S70
M105
M190 S70
M104 S210
M105
M109 S210
M82 ;absolute extrusion mode
Start G-code
==============================
M201 X500.00 Y500.00 Z100.00 E5000.00 ;Setup machine max acceleration
M203 X500.00 Y500.00 Z10.00 E50.00 ;Setup machine max feedrate
M204 P500.00 R1000.00 T500.00 ;Setup Print/Retract/Travel acceleration
M205 X8.00 Y8.00 Z0.40 E5.00 ;Setup Jerk
M220 S100 ;Reset Feedrate
M221 S100 ;Reset Flowrate

G28 ;Home
G29 ; Auto bed leveling
M420 S1 Z2 ;Enable ABL using saved Mesh and Fade Height

G92 E0 ;Reset Extruder
M413 S1; Enable power-loss recovery
M412 S0; Filament runout sensor disabled;
G1 Z2.0 F3000 ;Move Z Axis up
G1 X10.1 Y20 Z0.28 F5000.0 ;Move to start position
G1 X10.1 Y200.0 Z0.28 F1500.0 E15 ;Draw the first line
G1 X10.4 Y200.0 Z0.28 F5000.0 ;Move to side a little
G1 X10.4 Y20 Z0.28 F1500.0 E30 ;Draw the second line
G92 E0 ;Reset Extruder
G1 Z2.0 F3000 ;Move Z Axis up
==============================
G92 E0
G92 E0
G1 F2700 E-5
;LAYER_COUNT:51
;LAYER:0
M107
G0 F6000 X100.419 Y87.006 Z0.12
;TYPE:SKIRT
G1 F2700 E0
G1 F1200 X103.027 Y85.409 E0.03051
G1 X105.131 Y84.753 E0.0525
G1 X121.426 Y84.753 E0.2151
G1 X123.965 Y85.554 E0.24166
G1 X126.126 Y87.215 E0.26886
G1 X127.438 Y89.136 E0.29207
G1 X128.179 Y91.353 E0.31539
G1 X128.14 Y96.402 E0.36577
G1 X125.476 Y124.398 E0.64638
G1 X123.852 Y127.564 E0.68189
G1 X121.194 Y129.456 E0.71444
G1 X101.601 Y135.088 E0.91786
G1 X99.028 Y135.009 E0.94354
G1 X95.802 Y133.759 E0.97806
G1 X93.453 Y130.947 E1.01462
G1 X91.828 Y125.317 E1.07309
G1 X91.907 Y122.677 E1.09945
G1 X93.103 Y119.571 E1.13266
G1 X96.011 Y117.136 E1.1705
G1 X104.407 Y114.741 E1.25762
G1 X103.853 Y112.823 E1.27754
G1 X102.604 Y112.041 E1.29224
G1 X100.853 Y110.195 E1.31763
G1 X99.883 Y108.175 E1.33999
G1 X99.473 Y106.935 E1.35302
G1 X99.401 Y106.627 E1.35618
G1 X99.206 Y105.991 E1.36281
G1 X98.912 Y104.461 E1.37836
G1 X98.794 Y101.965 E1.40329
G1 X98.966 Y100.566 E1.41736
G1 X99.271 Y99.292 E1.43043
G1 X99.623 Y98.091 E1.44292
G1 X98.406 Y93.862 E1.48683
G1 X98.39 Y91.147 E1.51392
G1 X98.995 Y89.555 E1.53091
G1 X100.419 Y87.006 E1.56004
G0 F6000 X100.569 Y87.149
G1 F1200 X103.11 Y85.593 E1.58977
G1 X105.162 Y84.953 E1.61122
G1 X121.395 Y84.953 E1.7732
G1 X123.87 Y85.734 E1.79909
G1 X125.98 Y87.355 E1.82564
G1 X127.257 Y89.225 E1.84824
G1 X127.979 Y91.385 E1.87096
G1 X127.941 Y96.383 E1.92083
G1 X125.281 Y124.341 E2.20106
G1 X123.697 Y127.429 E2.23569
G1 X121.105 Y129.274 E2.26743
G1 X101.577 Y134.887 E2.47017
G1 X99.066 Y134.81 E2.49524
G1 X95.922 Y133.592 E2.52888
G1 X93.633 Y130.852 E2.56451
G1 X92.029 Y125.293 E2.62224
G1 X92.106 Y122.718 E2.64794
G1 X93.272 Y119.69 E2.68032
G1 X96.106 Y117.317 E2.7172
G1 X104.654 Y114.878 E2.8059
G1 X104.024 Y112.695 E2.82857
G1 X102.734 Y111.887 E2.84376
G1 X101.019 Y110.079 E2.86862
G1 X100.073 Y108.112 E2.8904
G1 X99.668 Y106.889 E2.90326
G1 X99.596 Y106.581 E2.90641
G1 X99.397 Y105.932 E2.91319
G1 X99.112 Y104.451 E2.92823
G1 X98.993 Y101.989 E2.95283
G1 X99.165 Y100.59 E2.96689
G1 X99.463 Y99.348 E2.97964
G1 X99.831 Y98.092 E2.9927
G1 X98.606 Y93.834 E3.03691
G1 X98.59 Y91.183 E3.06336
G1 X99.17 Y89.653 E3.07969
G1 X100.569 Y87.149 E3.10831
G0 F6000 X100.719 Y87.292
G1 F1200 X103.193 Y85.777 E3.13725
G1 X105.193 Y85.153 E3.15816
G1 X121.364 Y85.153 E3.31951
G1 X123.775 Y85.914 E3.34474
G1 X125.834 Y87.495 E3.37064
G1 X127.076 Y89.314 E3.39262
G1 X127.779 Y91.417 E3.41474
G1 X127.742 Y96.364 E3.46411
G1 X125.086 Y124.284 E3.74395
G1 X123.542 Y127.294 E3.77771
G1 X121.016 Y129.092 E3.80864
G1 X101.553 Y134.686 E4.01071
G1 X99.107 Y134.611 E4.03513
G1 X96.042 Y133.424 E4.06792
G1 X93.813 Y130.755 E4.10262
G1 X92.23 Y125.269 E4.15959
G1 X92.305 Y122.759 E4.18465
G1 X93.441 Y119.809 E4.21619
G1 X96.201 Y117.498 E4.25211
G1 X104.901 Y115.015 E4.34238
G1 X104.195 Y112.567 E4.36781
G1 X102.864 Y111.733 E4.38348
G1 X101.185 Y109.963 E4.40782
G1 X100.263 Y108.049 E4.42902
G1 X99.863 Y106.843 E4.4417
G1 X99.791 Y106.535 E4.44485
G1 X99.588 Y105.873 E4.45176
G1 X99.312 Y104.441 E4.46632
G1 X99.193 Y101.979 E4.49091
G1 X99.359 Y100.637 E4.5044
G1 X99.655 Y99.404 E4.51705
G1 X99.966 Y98.343 E4.52809
G1 X100.027 Y98.05 E4.53107
G1 X98.806 Y93.806 E4.57514
G1 X98.79 Y91.219 E4.60095
G1 X99.345 Y89.751 E4.61661
G1 X100.719 Y87.292 E4.64472
G0 F6000 X100.869 Y87.435
G1 F1200 X103.276 Y85.961 E4.67288
G1 X105.224 Y85.353 E4.69324
G1 X121.333 Y85.353 E4.85398
G1 X123.68 Y86.094 E4.87854
G1 X125.688 Y87.635 E4.90379
G1 X126.895 Y89.403 E4.92515
G1 X127.579 Y91.449 E4.94668
G1 X127.543 Y96.345 E4.99553
G1 X124.891 Y124.227 E5.275
G1 X123.387 Y127.159 E5.30788
G1 X120.927 Y128.91 E5.338
G1 X101.529 Y134.485 E5.53939
G1 X99.148 Y134.412 E5.56316
G1 X96.162 Y133.256 E5.59511
G1 X93.993 Y130.658 E5.62888
G1 X92.431 Y125.245 E5.6851
G1 X92.504 Y122.8 E5.7095
G1 X93.61 Y119.928 E5.74021
G1 X96.296 Y117.679 E5.77517
G1 X105.148 Y115.152 E5.86702
G1 X104.366 Y112.437 E5.89521
G1 X102.991 Y111.576 E5.9114
G1 X101.351 Y109.847 E5.93518
G1 X100.453 Y107.986 E5.9558
G1 X100.058 Y106.797 E5.9683
G1 X99.986 Y106.489 E5.97145
G1 X99.779 Y105.814 E5.9785
G1 X99.512 Y104.431 E5.99255
G1 X99.392 Y102.003 E6.01681
G1 X99.554 Y100.684 E6.03007
G1 X99.847 Y99.46 E6.04263
G1 X100.152 Y98.417 E6.05347
G1 X100.202 Y98.292 E6.05481
G1 X100.23 Y98.034 E6.0574
G1 X99.006 Y93.778 E6.10159
G1 X98.99 Y91.255 E6.12677
G1 X99.52 Y89.849 E6.14176
G1 X100.869 Y87.435 E6.16935
G0 F6000 X101.019 Y87.578
G1 F1200 X103.359 Y86.145 E6.19673
G1 X105.255 Y85.553 E6.21655
G1 X121.302 Y85.553 E6.37667
G1 X123.586 Y86.274 E6.40057
G1 X125.542 Y87.775 E6.42517
G1 X126.714 Y89.492 E6.44591
G1 X127.379 Y91.481 E6.46684
G1 X127.344 Y96.326 E6.51518
G1 X124.696 Y124.17 E6.79426
G1 X123.232 Y127.024 E6.82627
G1 X120.838 Y128.728 E6.85559
G1 X101.505 Y134.284 E7.0563
G1 X99.186 Y134.213 E7.07945
G1 X96.284 Y133.089 E7.11051
G1 X94.173 Y130.561 E7.14337
G1 X92.632 Y125.221 E7.19883
G1 X92.703 Y122.841 E7.22258
G1 X93.779 Y120.047 E7.25246
G1 X96.391 Y117.86 E7.28645
G1 X105.395 Y115.289 E7.37988
G1 X104.537 Y112.309 E7.41083
G1 X103.121 Y111.422 E7.4275
G1 X101.517 Y109.731 E7.45075
G1 X100.643 Y107.923 E7.47079
G1 X100.253 Y106.751 E7.48312
G1 X100.181 Y106.443 E7.48627
G1 X99.97 Y105.755 E7.49345
G1 X99.712 Y104.421 E7.50701
G1 X99.592 Y101.993 E7.53127
G1 X99.748 Y100.731 E7.54395
G1 X100.039 Y99.516 E7.55642
G1 X100.338 Y98.491 E7.56707
G1 X100.398 Y98.341 E7.56869
G1 X100.433 Y98.017 E7.57194
G1 X99.206 Y93.75 E7.61624
G1 X99.19 Y91.29 E7.64079
G1 X99.695 Y89.947 E7.6551
G1 X101.019 Y87.578 E7.68218
G0 F6000 X101.169 Y87.721
G1 F1200 X103.442 Y86.329 E7.70878
G1 X105.286 Y85.753 E7.72805
G1 X121.271 Y85.753 E7.88755
G1 X123.492 Y86.454 E7.91079
G1 X125.396 Y87.915 E7.93474
G1 X126.533 Y89.581 E7.95486
G1 X127.179 Y91.513 E7.97519
G1 X127.145 Y96.307 E8.02303
G1 X124.501 Y124.113 E8.30173
G1 X123.077 Y126.889 E8.33286
G1 X120.749 Y128.546 E8.36137
G1 X101.481 Y134.083 E8.56141
G1 X99.224 Y134.014 E8.58394
G1 X96.406 Y132.922 E8.61409
G1 X94.353 Y130.464 E8.64605
G1 X92.833 Y125.197 E8.70075
G1 X92.902 Y122.882 E8.72386
G1 X93.948 Y120.166 E8.7529
G1 X96.486 Y118.041 E8.78593
G1 X105.642 Y115.426 E8.88094
G1 X104.708 Y112.181 E8.91463
G1 X103.251 Y111.268 E8.93179
G1 X101.683 Y109.615 E8.95452
G1 X100.833 Y107.86 E8.97398
G1 X100.448 Y106.705 E8.98613
G1 X100.376 Y106.397 E8.98928
G1 X100.161 Y105.696 E8.9966
G1 X99.912 Y104.411 E9.00966
G1 X99.791 Y102.017 E9.03358
G1 X99.943 Y100.777 E9.04604
G1 X100.231 Y99.572 E9.05841
G1 X100.524 Y98.566 E9.06886
G1 X100.594 Y98.392 E9.07073
G1 X100.636 Y98 E9.07467
G1 X99.406 Y93.722 E9.11908
G1 X99.39 Y91.325 E9.143
G1 X99.87 Y90.045 E9.15664
G1 X101.169 Y87.721 E9.18321
G0 F6000 X101.319 Y87.864
G1 F1200 X103.525 Y86.513 E9.20902
G1 X105.317 Y85.953 E9.22775
G1 X121.24 Y85.953 E9.38663
G1 X123.398 Y86.634 E9.40921
G1 X125.25 Y88.055 E9.4325
G1 X126.352 Y89.67 E9.45201
G1 X126.979 Y91.545 E9.47174
G1 X126.946 Y96.288 E9.51907
G1 X124.306 Y124.056 E9.79739
G1 X122.922 Y126.754 E9.82764
G1 X120.66 Y128.364 E9.85535
G1 X101.457 Y133.882 E10.05471
G1 X99.262 Y133.815 E10.07662
G1 X96.526 Y132.755 E10.1059
G1 X94.533 Y130.369 E10.13692
G1 X93.034 Y125.173 E10.19088
G1 X93.101 Y122.923 E10.21334
G1 X94.117 Y120.285 E10.24154
G1 X96.581 Y118.222 E10.27361
G1 X105.889 Y115.563 E10.3702
G1 X104.879 Y112.051 E10.40666
G1 X103.378 Y111.111 E10.42434
G1 X101.849 Y109.499 E10.4465
G1 X101.023 Y107.797 E10.46538
G1 X100.643 Y106.659 E10.47735
G1 X100.571 Y106.351 E10.48051
G1 X100.352 Y105.637 E10.48796
G1 X100.112 Y104.401 E10.50052
G1 X99.99 Y102.041 E10.5241
G1 X100.142 Y100.801 E10.53657
G1 X100.423 Y99.628 E10.5486
G1 X100.71 Y98.641 E10.55886
G1 X100.79 Y98.442 E10.561
G1 X100.839 Y97.983 E10.56561
G1 X99.606 Y93.694 E10.61014
G1 X99.59 Y91.36 E10.63343
G1 X100.045 Y90.143 E10.64639
G1 X101.319 Y87.864 E10.67244
G0 F6000 X101.469 Y88.007
G1 F1200 X103.608 Y86.697 E10.69747
G1 X105.348 Y86.153 E10.71566
G1 X121.209 Y86.153 E10.87392
G1 X123.304 Y86.814 E10.89584
G1 X125.104 Y88.195 E10.91848
G1 X126.171 Y89.759 E10.93737
G1 X126.779 Y91.577 E10.9565
G1 X126.747 Y96.269 E11.00332
G1 X124.111 Y123.999 E11.28125
G1 X122.767 Y126.619 E11.31064
G1 X120.571 Y128.182 E11.33753
G1 X101.433 Y133.681 E11.53622
G1 X99.303 Y133.616 E11.55748
G1 X96.646 Y132.587 E11.58591
G1 X94.713 Y130.272 E11.616
G1 X93.235 Y125.149 E11.66921
G1 X93.3 Y122.964 E11.69102
G1 X94.286 Y120.404 E11.71839
G1 X96.676 Y118.403 E11.74949
G1 X106.136 Y115.7 E11.84766
G1 X105.05 Y111.923 E11.88688
G1 X103.508 Y110.957 E11.90503
G1 X102.015 Y109.383 E11.92668
G1 X101.213 Y107.734 E11.94498
G1 X100.838 Y106.613 E11.95677
G1 X100.766 Y106.305 E11.95993
G1 X100.543 Y105.578 E11.96751
G1 X100.312 Y104.39 E11.97959
G1 X100.189 Y102.065 E12.00282
G1 X100.337 Y100.847 E12.01506
G1 X100.615 Y99.684 E12.027
G1 X100.896 Y98.716 E12.03705
G1 X100.986 Y98.492 E12.03946
G1 X101.042 Y97.966 E12.04474
G1 X99.806 Y93.666 E12.08938
G1 X99.79 Y91.395 E12.11204
G1 X100.22 Y90.241 E12.12433
G1 X101.469 Y88.007 E12.14987
G0 F6000 X101.619 Y88.15
G1 F1200 X103.691 Y86.881 E12.17411
G1 X105.379 Y86.353 E12.19176
G1 X121.178 Y86.353 E12.3494
G1 X123.21 Y86.994 E12.37066
G1 X124.958 Y88.335 E12.39265
G1 X125.99 Y89.848 E12.41092
G1 X126.579 Y91.609 E12.42945
G1 X126.548 Y96.25 E12.47576
G1 X123.916 Y123.942 E12.75332
G1 X122.612 Y126.484 E12.78182
G1 X120.482 Y128 E12.80791
G1 X101.409 Y133.48 E13.00592
G1 X99.344 Y133.417 E13.02653
G1 X96.766 Y132.419 E13.05412
G1 X94.893 Y130.175 E13.08328
G1 X93.436 Y125.125 E13.13573
G1 X93.499 Y123.005 E13.15689
G1 X94.455 Y120.523 E13.18343
G1 X96.771 Y118.584 E13.21357
G1 X106.383 Y115.837 E13.31332
G1 X105.221 Y111.795 E13.35528
G1 X103.638 Y110.803 E13.37392
G1 X102.182 Y109.268 E13.39503
G1 X101.403 Y107.67 E13.41277
G1 X101.033 Y106.567 E13.42438
G1 X100.961 Y106.259 E13.42754
G1 X100.734 Y105.519 E13.43526
G1 X100.512 Y104.379 E13.44685
G1 X100.388 Y102.089 E13.46973
G1 X100.536 Y100.871 E13.48197
G1 X100.807 Y99.74 E13.49358
G1 X101.082 Y98.791 E13.50344
G1 X101.182 Y98.542 E13.50611
G1 X101.245 Y97.949 E13.51207
G1 X100.006 Y93.638 E13.55682
G1 X99.99 Y91.429 E13.57886
G1 X100.395 Y90.339 E13.59047
G1 X101.619 Y88.15 E13.61549
G0 F6000 X101.769 Y88.293
G1 F1200 X103.774 Y87.065 E13.63895
G1 X105.41 Y86.553 E13.65606
G1 X121.147 Y86.553 E13.81308
G1 X123.116 Y87.174 E13.83368
G1 X124.812 Y88.475 E13.85501
G1 X125.809 Y89.937 E13.87267
G1 X126.379 Y91.641 E13.89059
G1 X126.349 Y96.231 E13.9364
G1 X123.721 Y123.885 E14.21357
G1 X122.457 Y126.349 E14.2412
G1 X120.393 Y127.818 E14.26648
G1 X101.385 Y133.279 E14.46382
G1 X99.382 Y133.218 E14.48381
G1 X96.888 Y132.252 E14.5105
G1 X95.073 Y130.078 E14.53876
G1 X93.637 Y125.101 E14.59044
G1 X93.698 Y123.046 E14.61096
G1 X94.624 Y120.642 E14.63666
G1 X96.866 Y118.765 E14.66584
G1 X106.63 Y115.974 E14.76717
G1 X105.392 Y111.665 E14.8119
G1 X103.765 Y110.646 E14.83106
G1 X102.349 Y109.153 E14.85159
G1 X101.583 Y107.582 E14.86903
G1 X101.228 Y106.521 E14.88019
G1 X101.156 Y106.213 E14.88335
G1 X100.925 Y105.46 E14.89121
G1 X100.712 Y104.368 E14.90231
G1 X100.587 Y102.113 E14.92484
G1 X100.735 Y100.895 E14.93708
G1 X100.999 Y99.796 E14.94836
G1 X101.274 Y98.847 E14.95822
G1 X101.378 Y98.589 E14.961
G1 X101.448 Y97.932 E14.96759
G1 X100.206 Y93.61 E15.01246
G1 X100.19 Y91.465 E15.03386
G1 X100.57 Y90.437 E15.0448
G1 X101.769 Y88.293 E15.06931
G0 F6000 X101.919 Y88.436
G1 F1200 X103.857 Y87.249 E15.09199
G1 X105.441 Y86.753 E15.10855
G1 X121.116 Y86.753 E15.26495
G1 X123.022 Y87.354 E15.2849
G1 X124.666 Y88.615 E15.30557
G1 X125.628 Y90.026 E15.32261
G1 X126.179 Y91.673 E15.33994
G1 X126.15 Y96.212 E15.38523
G1 X123.526 Y123.828 E15.66202
G1 X122.302 Y126.214 E15.68878
G1 X120.304 Y127.636 E15.71325
G1 X101.361 Y133.078 E15.90991
G1 X99.423 Y133.019 E15.92926
G1 X97.008 Y132.084 E15.9551
G1 X95.253 Y129.981 E15.98243
G1 X93.838 Y125.077 E16.03336
G1 X93.897 Y123.087 E16.05322
G1 X94.793 Y120.761 E16.07809
G1 X96.961 Y118.946 E16.10631
G1 X106.877 Y116.111 E16.20921
G1 X105.563 Y111.535 E16.25672
G1 X103.892 Y110.489 E16.27639
G1 X102.516 Y109.038 E16.29634
G1 X101.763 Y107.494 E16.31348
G1 X101.423 Y106.475 E16.3242
G1 X101.351 Y106.167 E16.32736
G1 X101.121 Y105.421 E16.33514
G1 X100.912 Y104.357 E16.34596
G1 X100.787 Y102.102 E16.3685
G1 X100.93 Y100.942 E16.38016
G1 X101.191 Y99.852 E16.39134
G1 X101.46 Y98.922 E16.401
G1 X101.574 Y98.639 E16.40405
G1 X101.635 Y98.052 E16.40994
G1 X101.66 Y97.946 E16.41102
G1 X100.406 Y93.582 E16.45633
G1 X100.39 Y91.501 E16.4771
G1 X100.745 Y90.535 E16.48736
G1 X101.919 Y88.436 E16.51136
G0 F6000 X102.069 Y88.579
G1 F1200 X103.94 Y87.433 E16.53325
G1 X105.472 Y86.953 E16.54927
G1 X121.085 Y86.953 E16.70506
G1 X122.928 Y87.534 E16.72434
G1 X124.52 Y88.755 E16.74436
G1 X125.447 Y90.115 E16.76078
G1 X125.979 Y91.705 E16.77751
G1 X125.951 Y96.193 E16.8223
G1 X123.331 Y123.771 E17.09871
G1 X122.147 Y126.079 E17.12459
G1 X120.215 Y127.454 E17.14825
G1 X101.337 Y132.877 E17.34424
G1 X99.461 Y132.82 E17.36296
G1 X97.13 Y131.917 E17.38791
G1 X95.433 Y129.884 E17.41433
G1 X94.039 Y125.053 E17.4645
G1 X94.096 Y123.128 E17.48372
G1 X94.962 Y120.88 E17.50776
G1 X97.056 Y119.127 E17.535
G1 X107.124 Y116.248 E17.63949
G1 X105.734 Y111.405 E17.68976
G1 X104.019 Y110.332 E17.70995
G1 X102.683 Y108.923 E17.72932
G1 X101.943 Y107.406 E17.74617
G1 X101.618 Y106.429 E17.75644
G1 X101.546 Y106.121 E17.7596
G1 X101.317 Y105.382 E17.76732
G1 X101.112 Y104.346 E17.77785
G1 X100.986 Y102.126 E17.80004
G1 X101.125 Y100.989 E17.81147
G1 X101.386 Y99.899 E17.82265
G1 X101.646 Y98.997 E17.83202
G1 X101.77 Y98.689 E17.83533
G1 X101.834 Y98.073 E17.84151
G1 X101.867 Y97.943 E17.84285
G1 X100.606 Y93.554 E17.88842
G1 X100.59 Y91.537 E17.90854
G1 X100.92 Y90.633 E17.91814
G1 X102.069 Y88.579 E17.94163
G0 F6000 X102.219 Y88.722
G1 F1200 X104.023 Y87.617 E17.96274
G1 X105.503 Y87.153 E17.97821
G1 X121.054 Y87.153 E18.13338
G1 X122.834 Y87.714 E18.152
G1 X124.374 Y88.895 E18.17137
G1 X125.265 Y90.203 E18.18716
G1 X125.779 Y91.738 E18.20331
G1 X125.752 Y96.174 E18.24758
G1 X123.136 Y123.714 E18.52361
G1 X121.992 Y125.944 E18.54862
G1 X120.126 Y127.272 E18.57147
G1 X101.313 Y132.676 E18.76678
G1 X99.499 Y132.621 E18.78489
G1 X97.252 Y131.75 E18.80893
G1 X95.613 Y129.787 E18.83445
G1 X94.24 Y125.029 E18.88386
G1 X94.295 Y123.169 E18.90243
G1 X95.131 Y120.999 E18.92563
G1 X97.151 Y119.308 E18.95192
G1 X107.371 Y116.385 E19.05798
G1 X105.905 Y111.275 E19.11103
G1 X104.146 Y110.175 E19.13173
G1 X102.85 Y108.808 E19.15052
G1 X102.123 Y107.318 E19.16707
G1 X101.813 Y106.383 E19.17689
G1 X101.741 Y106.075 E19.18005
G1 X101.508 Y105.323 E19.18791
G1 X101.312 Y104.334 E19.19797
G1 X101.185 Y102.15 E19.21979
G1 X101.32 Y101.036 E19.23099
G1 X101.581 Y99.946 E19.24218
G1 X101.832 Y99.072 E19.25125
G1 X101.966 Y98.739 E19.25483
G1 X102.028 Y98.122 E19.26102
